build/web/dist/spark/icons/CarOutline.svg

<svg viewBox="0 0 24 24" xmlns="http://www.w3.org/2000/svg" data-title="CarOutline" fill="currentColor" stroke="none">
  <path fill-rule="evenodd" clip-rule="evenodd" d="M9.04615 5.98221C8.21532 5.98221 7.4911 6.54504 7.2896 7.34733L7.2896 7.34733L6.69792 9.70306H16.8345L16.2428 7.34735C16.0413 6.54501 15.3171 5.98221 14.4863 5.98221H9.04615ZM20.909 10.6321C21.5805 11.2589 22 12.15 22 13.1386V17.2123C22 18.6597 20.8212 19.8331 19.3671 19.8331H18.4974C17.4052 19.8331 16.4694 19.1669 16.0777 18.2205H7.92253C7.5308 19.1669 6.59499 19.8331 5.50287 19.8331H4.63316C3.17903 19.8331 2.00022 18.6597 2.00022 17.2123V13.1386C2.00022 12.1485 2.421 11.2562 3.09427 10.6293L2.5507 10.3587C2.05878 10.1139 1.85939 9.5185 2.10535 9.02886C2.35131 8.53921 2.94949 8.34075 3.44141 8.58557L4.76071 9.24216L5.35738 6.86652C5.35739 6.86652 5.35739 6.86652 5.35739 6.86652C5.78055 5.18169 7.30141 3.99976 9.04615 3.99976H14.4863C16.2311 3.99976 17.7519 5.18172 18.175 6.8665L17.2089 7.10693L18.175 6.86651L18.7949 9.33445C18.8763 9.2712 18.969 9.21956 19.0714 9.18291L20.392 8.71051C20.9095 8.52535 21.4799 8.79289 21.6659 9.30806C21.8519 9.82324 21.5832 10.391 21.0656 10.5761L20.909 10.6321ZM5.45171 11.6855C4.64548 11.6855 3.9919 12.3361 3.9919 13.1386V17.2123C3.9919 17.5649 4.279 17.8506 4.63316 17.8506H5.50287C5.84761 17.8506 6.12708 17.5725 6.12708 17.2293C6.12708 16.6819 6.57293 16.2381 7.12292 16.2381H16.8773C17.4273 16.2381 17.8731 16.6819 17.8731 17.2293C17.8731 17.5725 18.1526 17.8506 18.4974 17.8506H19.3671C19.7212 17.8506 20.0083 17.5649 20.0083 17.2123V13.1386C20.0083 12.3361 19.3547 11.6855 18.5485 11.6855H5.45171ZM5.39153 14.1861C5.39153 13.6387 5.83738 13.1949 6.38737 13.1949H7.79059C8.34058 13.1949 8.78643 13.6387 8.78643 14.1861C8.78643 14.7335 8.34058 15.1773 7.79059 15.1773H6.38737C5.83738 15.1773 5.39153 14.7335 5.39153 14.1861ZM15.2141 14.1861C15.2141 13.6387 15.66 13.1949 16.21 13.1949H17.6132C18.1632 13.1949 18.609 13.6387 18.609 14.1861C18.609 14.7335 18.1632 15.1773 17.6132 15.1773H16.21C15.66 15.1773 15.2141 14.7335 15.2141 14.1861Z"/>
</svg>

<svg viewBox="0 0 24 24" xmlns="http://www.w3.org/2000/svg" data-title="CarOutline" fill="currentColor" stroke="none">
  <path d="m9.05,6.07c-.83,0-1.56.56-1.76,1.37h0l-.59,2.36h10.14l-.59-2.36c-.2-.8-.93-1.37-1.76-1.37h-5.44Zm11.86,4.65c.67.63,1.09,1.52,1.09,2.51v4.07c0,1.45-1.18,2.62-2.63,2.62h-.87c-1.09,0-2.03-.67-2.42-1.61H7.92c-.39.95-1.33,1.61-2.42,1.61h-.87c-1.45,0-2.63-1.17-2.63-2.62v-4.07c0-.99.42-1.88,1.09-2.51l-.54-.27c-.49-.24-.69-.84-.45-1.33.25-.49.84-.69,1.34-.44l1.32.66.6-2.38h0c.42-1.68,1.94-2.87,3.69-2.87h5.44c1.74,0,3.27,1.18,3.69,2.87l-.97.24.97-.24.62,2.47c.08-.06.17-.11.28-.15l1.32-.47c.52-.19,1.09.08,1.27.6.19.52-.08,1.08-.6,1.27l-.16.06Zm-15.46,1.05c-.81,0-1.46.65-1.46,1.45v4.07c0,.35.29.64.64.64h.87c.34,0,.62-.28.62-.62,0-.55.45-.99,1-.99h9.75c.55,0,1,.44,1,.99,0,.34.28.62.62.62h.87c.35,0,.64-.29.64-.64v-4.07c0-.8-.65-1.45-1.46-1.45H5.45Zm-.06,2.5c0-.55.45-.99,1-.99h1.4c.55,0,1,.44,1,.99s-.45.99-1,.99h-1.4c-.55,0-1-.44-1-.99Zm9.82,0c0-.55.45-.99,1-.99h1.4c.55,0,1,.44,1,.99s-.45.99-1,.99h-1.4c-.55,0-1-.44-1-.99Z"/>
</svg>
